X: 19
T: Lord Lotherdale Favorite
%C: Mr. Gray
%R: jig
B: Mr. Gray "24 Country Dances for the Year 1803" p.10 #1
S: http://imslp.org/wiki/24_Country_Dances_for_the_Year_1803_(Various)  2013-12-2
Z: 2013 John Chambers <jc:trillian.mit.edu>
N: Removed dot from last note in east strain, to match the pickup notes.
M: 6/8
L: 1/8
K: A
a |\
ecA A2B | cAF F2G | Ace fdB | GBG Eaf |\
ecA edB | ecA fga | edc BAG | A3 A2 :|
|:c |\
BGE E2d | cec Ace | fed cBA | BGE E2E |\
FAF DFA | dfg agf | edc BAG | A3 A2 :|
% - - - - - - - - - - - - - - - - - - - - - - - - -
%%begintext align
%% The 3 Ladies lead round the 3 Gen: the Gen:
%% round the 3 Ladies, lead down the middle
%% up again, cast off, & Allemand.
%%endtext

%%sep 1 1 500
%%sep 1 1 500
